public/logos/fia.svg

<svg width="300" height="200" viewBox="0 0 300 200" fill="none" xmlns="http://www.w3.org/2000/svg">
<path fill-rule="evenodd" clip-rule="evenodd" d="M101.851 0.559621H105.137V0.610935C121.406 1.10281 137.325 5.45575 151.581 13.3107C156.78 10.2861 162.245 7.74359 167.908 5.71488L172.426 12.5683L176.823 11.2421L177.69 2.77726C182.868 1.51142 188.139 0.668938 193.453 0.258163L195.983 8.41518L200.577 8.36707L203.959 0C209.092 0.145919 214.125 0.686301 219.035 1.58907L219.531 10.5783L224 11.6478L229.493 4.11458C234.639 5.66091 239.649 7.62643 244.473 9.99142L242.535 18.1356L246.511 20.4318L253.559 15.0537C257.947 17.8107 262.114 20.9052 266.023 24.3091L261.501 31.6595L264.56 35.083L273.812 31.8744C277.402 35.7616 280.677 39.9272 283.608 44.332L278.094 49.6348L280.198 53.7157L288.773 53.023C291.235 57.6901 293.317 62.5479 294.999 67.5491L287.938 71.869L289.111 76.3075L297.764 77.4941C298.93 82.7258 299.666 88.0442 299.966 93.396L291.513 96.0562L291.582 100.647L299.998 104.011C299.715 109.58 298.961 115.115 297.743 120.556L289.358 120.766L288.156 125.198L294.961 130.485C293.285 135.441 291.218 140.256 288.779 144.884L281.282 143.055L278.964 147.017L283.753 153.365C281.086 157.395 278.13 161.226 274.908 164.827L267.726 161.085L264.528 164.38L267.798 172.012C263.785 175.68 259.48 179.013 254.923 181.978L249.282 176.688L245.313 178.999L246.372 186.954C241.446 189.504 236.314 191.633 231.029 193.318L226.899 186.069L222.427 187.105L220.932 195.95C215.907 196.978 210.81 197.613 205.686 197.848L203.334 189.662L198.746 189.616L195.238 197.784C189.912 197.47 184.62 196.722 179.416 195.547L179.199 186.155L174.77 184.946L168.852 192.537C163.696 190.75 158.699 188.536 153.911 185.92C138.66 194.854 120.85 200 101.848 200C45.7527 200 0 155.201 0 100.278C0 46.4294 43.9777 2.32347 98.5625 0.61414V0.556415H101.83C101.838 0.559622 101.845 0.559621 101.851 0.559621ZM94.4126 193.921C95.2572 193.312 96.0937 192.692 96.9221 192.061C83.1617 180.233 72.1621 165.532 64.6981 148.993C53.8693 153.473 43.9466 159.888 35.4149 167.922C51.5218 183.091 72.349 192.269 94.4126 193.921ZM31.2795 163.78C40.3551 155.227 50.9142 148.399 62.4388 143.634C57.2771 130.545 54.415 116.663 53.9787 102.6H5.95541C6.54389 126.136 16.0511 147.573 31.2795 163.78ZM6.02917 96.0289H53.945C54.2372 81.6893 57.051 67.5129 62.2576 54.1487C51.3822 49.6282 41.3667 43.2682 32.6505 35.3476C17.0516 51.28 7.10672 72.5569 6.02917 96.0289ZM36.8821 31.2891C45.0273 38.6469 54.3667 44.563 64.4993 48.7833C71.6894 32.675 82.2323 18.2853 95.4244 6.57436C73.6811 7.97283 53.0495 16.6828 36.8821 31.2891ZM107.547 6.52786C120.828 18.3052 131.427 32.7957 138.628 49.0207C148.981 44.7864 158.52 38.7868 166.82 31.2891C150.466 16.515 129.551 7.77787 107.547 6.52786ZM171.052 35.3492C162.177 43.4137 151.957 49.8591 140.855 54.3924C146.001 67.686 148.782 81.7771 149.073 96.0289H197.675C196.599 72.5569 186.654 51.28 171.052 35.3492ZM197.747 102.6H149.041C148.607 116.577 145.778 130.375 140.677 143.395C152.429 148.168 163.193 155.08 172.423 163.78C187.65 147.57 197.159 126.136 197.747 102.6ZM168.286 167.92C159.6 159.743 149.476 153.245 138.424 148.754C130.961 165.391 119.922 180.179 106.094 192.064C106.941 192.709 107.795 193.342 108.658 193.966C130.948 192.443 152.021 183.238 168.286 167.92ZM59.7256 96.0289H98.5673V61.9625C88.0303 61.6404 77.6052 59.7022 67.6566 56.2156C62.7022 68.92 60.0178 82.3958 59.7256 96.0289ZM105.137 96.0289H143.294C143.002 82.4718 140.347 69.0695 135.446 56.4256C125.678 59.7812 115.46 61.6478 105.137 61.9625V96.0289ZM143.257 102.6H105.137V135.895C115.395 136.208 125.549 138.054 135.262 141.37C140.119 128.997 142.823 115.885 143.257 102.6ZM98.5657 102.6H59.7609C60.196 115.961 62.9282 129.146 67.8378 141.58C77.7314 138.132 88.0934 136.215 98.5657 135.895V102.6ZM132.998 146.736C124.007 143.702 114.62 142.003 105.137 141.693V185.185C116.93 174.386 126.408 161.306 132.998 146.736ZM98.5657 141.695C88.8722 142.013 79.2811 143.78 70.1115 146.94C76.8279 161.712 86.5137 174.943 98.5657 185.809V141.695ZM69.9047 50.847C79.1361 54.0522 88.7988 55.8443 98.5657 56.1627V11.5131C86.3878 22.4951 76.6274 35.8901 69.9047 50.847ZM105.137 56.1627C114.694 55.8512 124.153 54.1286 133.206 51.0507C126.609 36.2957 117.056 23.0504 105.137 12.1337V56.1627ZM200.608 25.2968C240.843 25.2968 273.658 58.1141 273.658 98.3492C273.658 138.586 240.843 171.402 200.608 171.402C192.574 171.407 184.595 170.077 176.996 167.468C172.008 172.81 166.461 177.602 160.451 181.762L160.658 183.612L168.196 186.665L173.972 180.182C177.075 181.226 180.236 182.088 183.439 182.766L183.676 192.039L192.943 193.382L196.846 184.504C199.949 184.662 203.059 184.646 206.161 184.456L208.741 193.193L218.039 192.093L219.499 182.613C222.68 181.912 225.818 181.028 228.897 179.964L232.981 186.667L241.685 183.213L240.78 174.831C243.646 173.324 246.424 171.655 249.101 169.833L254.55 175.285L262.195 169.877L259.27 161.744C261.455 159.716 263.536 157.579 265.503 155.339L272.039 159.298L278.174 152.224L273.33 144.929C274.817 142.607 276.19 140.213 277.444 137.757L285.455 139.485L288.948 130.798L282.442 125.83C283.462 122.765 284.304 119.643 284.966 116.482L293.309 116.187L294.559 106.904L286.653 103.525C286.835 100.133 286.812 96.7327 286.584 93.3431L294.704 90.5033L293.151 81.2687L284.735 80.3964C284.006 77.1225 283.082 73.8949 281.969 70.7305L289.185 66.4026L285.794 57.6748L276.62 58.6016C275.141 55.8487 273.512 53.1791 271.741 50.6049L277.428 44.3561L271.669 36.9735L263.484 40.3617C261.214 37.9487 258.808 35.6674 256.278 33.5292L260.425 26.3503L253.225 20.3661L245.477 25.7474C242.932 24.1983 240.308 22.7827 237.617 21.5062L239.493 13.4037L230.855 9.78457L225.327 16.8063C222.277 15.9036 219.177 15.1734 216.045 14.6191L215.535 6.14783L206.226 5.12479L202.95 13.3331C199.817 13.2673 196.682 13.3738 193.56 13.6522L190.761 5.6315L181.528 7.18209L180.626 15.8073C177.372 16.6131 174.168 17.6111 171.031 18.7963L166.007 11.9172L157.623 16.0863L157.807 17.0372C163.717 20.8626 169.216 25.2877 174.217 30.242C182.63 26.9662 191.58 25.289 200.608 25.2968ZM181.422 162.399C187.645 164.272 194.109 165.221 200.608 165.215C237.439 165.215 267.475 135.178 267.475 98.3476C267.475 61.5184 237.439 31.48 200.608 31.48C192.994 31.48 185.673 32.766 178.845 35.1279C194.316 52.6237 203.699 75.4127 203.699 100.28C203.698 123.737 195.351 145.34 181.422 162.399Z" fill="white"/>
<path fill-rule="evenodd" clip-rule="evenodd" d="M27.834 45.3951H95.0881V73.2239H61.0746V89.4577H91.9965V115.741H61.0746V153.232H27.834V45.3951ZM272.445 153.232H235.725L231.61 139.317H202.734L199.061 153.232H162.344L194.589 44.2358H240.197L272.445 153.232ZM224.635 115.741L216.348 87.7356L208.958 115.741H224.635ZM118.28 84.0475H150.747V154.007H118.28V84.0475ZM134.513 38.8256C145.582 38.8256 154.613 47.8533 154.613 58.9239C154.613 69.9944 145.582 79.0237 134.513 79.0237C123.443 79.0237 114.413 69.9944 114.413 58.9239C114.413 47.8533 123.443 38.8256 134.513 38.8256Z" fill="white"/>
</svg>

<svg xmlns="http://www.w3.org/2000/svg" width="300" height="200" fill="none"><path fill="#fff" fill-rule="evenodd" d="M101.851.56h3.286v.05a102.7 102.7 0 0 1 46.444 12.7 98.6 98.6 0 0 1 16.327-7.595l4.518 6.853 4.397-1.326.867-8.465A98 98 0 0 1 193.453.258l2.53 8.157 4.594-.048L203.959 0a99 99 0 0 1 15.076 1.59l.496 8.988 4.469 1.07 5.493-7.533a98 98 0 0 1 14.98 5.876l-1.938 8.145 3.976 2.296 7.048-5.378a100 100 0 0 1 12.464 9.255l-4.522 7.35 3.059 3.424 9.252-3.209a100 100 0 0 1 9.796 12.458l-5.514 5.303 2.104 4.08 8.575-.692a98 98 0 0 1 6.226 14.526l-7.061 4.32 1.173 4.439 8.653 1.186a98.4 98.4 0 0 1 2.202 15.902l-8.453 2.66.069 4.591 8.416 3.364a98.7 98.7 0 0 1-2.255 16.545l-8.385.21-1.202 4.432 6.805 5.287a99 99 0 0 1-6.182 14.399l-7.497-1.829-2.318 3.962 4.789 6.348a100 100 0 0 1-8.845 11.462l-7.182-3.742-3.198 3.295 3.27 7.632a99.6 99.6 0 0 1-12.875 9.966l-5.641-5.29-3.969 2.311 1.059 7.955a98.4 98.4 0 0 1-15.343 6.364l-4.13-7.249-4.472 1.036-1.495 8.845a98.6 98.6 0 0 1-15.246 1.898l-2.352-8.186-4.588-.046-3.508 8.168a98 98 0 0 1-15.822-2.237l-.217-9.392-4.429-1.209-5.918 7.591a98.3 98.3 0 0 1-14.941-6.617C138.66 194.854 120.85 200 101.848 200 45.753 200 0 155.201 0 100.278 0 46.429 43.978 2.323 98.563.614V.556h3.267q.012.005.021.004M94.413 193.92a119 119 0 0 0 2.51-1.86 124.1 124.1 0 0 1-32.225-43.068 96.6 96.6 0 0 0-29.283 18.929 96.57 96.57 0 0 0 58.998 25.999M31.28 163.78a102.6 102.6 0 0 1 31.159-20.146 122.2 122.2 0 0 1-8.46-41.034H5.955c.589 23.536 10.096 44.973 25.325 61.18M6.03 96.029h47.915a122.2 122.2 0 0 1 8.313-41.88A102.6 102.6 0 0 1 32.65 35.348C17.05 51.28 7.107 72.557 6.029 96.028m30.852-64.74A96.6 96.6 0 0 0 64.5 48.783 124.06 124.06 0 0 1 95.424 6.574 96.57 96.57 0 0 0 36.882 31.29m70.665-24.761a124.06 124.06 0 0 1 31.081 42.493 96.6 96.6 0 0 0 28.192-17.732 96.6 96.6 0 0 0-59.273-24.761m63.505 28.821a102.5 102.5 0 0 1-30.197 19.043 122.3 122.3 0 0 1 8.218 41.637h48.602c-1.076-23.472-11.021-44.749-26.623-60.68m26.695 67.251h-48.706a122.2 122.2 0 0 1-8.364 40.795 102.5 102.5 0 0 1 31.746 20.385c15.227-16.21 24.736-37.644 25.324-61.18m-29.461 65.32a96.6 96.6 0 0 0-29.862-19.166 124.1 124.1 0 0 1-32.33 43.31q1.27.967 2.564 1.902a96.58 96.58 0 0 0 59.628-26.046M59.726 96.029h38.841V61.963a103 103 0 0 1-30.91-5.747 116.5 116.5 0 0 0-7.931 39.813m45.411 0h38.157a116.5 116.5 0 0 0-7.848-39.603 103 103 0 0 1-30.309 5.536zm38.12 6.571h-38.12v33.295a103 103 0 0 1 30.125 5.475 116.5 116.5 0 0 0 7.995-38.77m-44.691 0H59.76a116.5 116.5 0 0 0 8.077 38.98 103 103 0 0 1 30.728-5.685zm34.432 44.136a97 97 0 0 0-27.861-5.043v43.492a118.2 118.2 0 0 0 27.861-38.449m-34.432-5.041a97.1 97.1 0 0 0-28.454 5.245 118.2 118.2 0 0 0 28.454 38.869zM69.905 50.847a97 97 0 0 0 28.66 5.316v-44.65a118.2 118.2 0 0 0-28.66 39.334m35.232 5.316a97 97 0 0 0 28.069-5.112 118.2 118.2 0 0 0-28.069-38.917zm95.471-30.866c40.235 0 73.05 32.817 73.05 73.052 0 40.237-32.815 73.053-73.05 73.053a72.6 72.6 0 0 1-23.612-3.934 102.3 102.3 0 0 1-16.545 14.294l.207 1.85 7.538 3.053 5.776-6.483a85 85 0 0 0 9.467 2.584l.237 9.273 9.267 1.343 3.903-8.878a83 83 0 0 0 9.315-.048l2.58 8.737 9.298-1.1 1.46-9.48a84 84 0 0 0 9.398-2.649l4.084 6.703 8.704-3.454-.905-8.382a86 86 0 0 0 8.321-4.998l5.449 5.452 7.645-5.408-2.925-8.133a88 88 0 0 0 6.233-6.405l6.536 3.959 6.135-7.074-4.844-7.295a85 85 0 0 0 4.114-7.172l8.011 1.728 3.493-8.687-6.506-4.968a84 84 0 0 0 2.524-9.348l8.343-.295 1.25-9.283-7.906-3.379a84 84 0 0 0-.069-10.182l8.12-2.84-1.553-9.234-8.416-.873a85 85 0 0 0-2.766-9.665l7.216-4.328-3.391-8.728-9.174.927a86 86 0 0 0-4.879-7.997l5.687-6.249-5.759-7.382-8.185 3.388a87 87 0 0 0-7.206-6.833l4.147-7.179-7.2-5.984-7.748 5.381a86 86 0 0 0-7.86-4.24l1.876-8.103-8.638-3.62-5.528 7.022a85 85 0 0 0-9.282-2.187l-.51-8.471-9.309-1.023-3.276 8.208a86 86 0 0 0-9.39.32l-2.799-8.022-9.233 1.551-.902 8.625a85 85 0 0 0-9.595 2.99l-5.024-6.88-8.384 4.17.184.95a102.3 102.3 0 0 1 16.41 13.205 72.6 72.6 0 0 1 26.391-4.945m-19.186 137.102a66.4 66.4 0 0 0 19.186 2.816c36.831 0 66.867-30.037 66.867-66.867S237.439 31.48 200.608 31.48a66.5 66.5 0 0 0-21.763 3.648c15.471 17.496 24.854 40.285 24.854 65.152-.001 23.457-8.348 45.06-22.277 62.119" clip-rule="evenodd"/><path fill="#fff" fill-rule="evenodd" d="M27.834 45.395h67.254v27.829H61.075v16.234h30.921v26.283H61.076v37.491H27.834zm244.611 107.837h-36.72l-4.115-13.915h-28.876l-3.673 13.915h-36.717l32.245-108.996h45.608zm-47.81-37.491-8.287-28.005-7.39 28.005zM118.28 84.048h32.467v69.959H118.28zm16.233-45.222c11.069 0 20.1 9.027 20.1 20.098s-9.031 20.1-20.1 20.1-20.1-9.03-20.1-20.1 9.03-20.098 20.1-20.098" clip-rule="evenodd"/></svg>
